X:1
T:Ye restless thoughts - Bennett
T:#
%%score [ 1 2 3 4 ]
L:1/8
Q:1/4=120
M:2/2
K:F
V:1 treble nm="Soprano" snm="S"
V:2 treble nm="Alto" snm="A"
V:3 treble-8 nm="Tenor" snm="T"
V:4 bass nm="Bass" snm="B"
V:1
"^Ye restless thoughts" F8 | A4 =B4 | c6 c2 | B4 G4 |"^John Bennett\n(c. 1575-after 1614)" A8 | %5
w: Ye|rest- less|thoughts, ye|rest- less|thoughts,|
[M:2/2] z4 c4 | f8- | f4 _e4 | d6 d2 | c4 B4- | B4 A4 | G8 | z8 | F4 B4- | B2 (A2 G2 F2) | %15
w: that|har\-|* bour|dis- con-|tent, dis\-|* con-|tent,||that har\-|* bour * *|
 E4 (F4- | F4 E4) | F4 z4 | z4 z2 c2 | =B2 c2 d2 _e2 | d3 d d2 B2 | B4 z2 _A2 | _A3 A A2 A2 | %23
w: dis- con\-||tent,|Cease|your as- saults and|let my heart la-|ment, and|let my heart la-|
 B4 _d4 | c6 z2 | z2 G4 A2- | A2 =B2 c4 | z2 f2 _e4- | e4 d4 | c8 | c8 | c4 z4 | z8 | z4 z2 F2 | %34
w: ment, la-|ment,|And let|* my tongue|have leave|* to|tell|my|grief,||That|
 c3 c B2 G2 | A2 F2 G2 E2 | F2 G2 E2 F2 | G2 _E2 D3 D | =E2 F2 G2 z2 | z8 | z2 A3 _B c2 | %41
w: she may pi- ty,|though not grant re-|lief, that she may|pi- ty, though not|grant re- lief.||Pi- ty would|
 d2 e2 f4 | z4 c4- | c4 B4- | B4 A4 | G4 F4 | E4 F4- | F4 _E4 | D8 | G4 A4- | A4 =B4 | c4 z4 | %52
w: help, a- las,|what|* Love|* hath|al- most|slain, al\-|* most|slain,|hath al\-|* most|slain,|
 z4 z2 =B2 | c3 c d2 c2 | c2 F2 B2 B2 | A2 G4 (F2- | F2 ED E4) | F4[Q:1/4=118] c4- | %58
w: And|salve the wound that|fes- ter'd this dis-|dain, this dis\-||dain, that|
[Q:1/4=115] c4[Q:1/4=113] B4- |[Q:1/4=110] B4[Q:1/4=108] A4 |[Q:1/4=105] G4[Q:1/4=103] G4 | %61
w: * fes\-|* ter'd|this dis-|
[Q:1/4=102] A8 |] %62
w: dain.|
V:2
 z8 | z8 | z4 C4 | D4 E4 | F6 G2 |[M:2/2] A4 G4 | F4 F4 | c6 C2 | G6 D2 | E4 F4 | G2 G2 F4- | %11
w: ||Ye|rest- less|thoughts, ye|rest- less|thoughts, that|har- bour|dis- con-|tent, that|har- bour dis\-|
 F2 _E2 D4 | G,4 A,2 B,2 | (C4 D2 _E2) | D8 | C8- | C8 | C4 z4 | z2 F2 E3 F | G2 _E2 D2 G2 | %20
w: * con- tent,|that har- bour|dis\- * *||con\-||tent,|Cease your as-|saults, as- saults and|
 B3 B B2 G2 | G4 z2 F2 | F3 F F2 (_E2 | _D2 C2 B,4) | _E4 F4 | =E4 E4 | F2 D2 C2 G2 | F2 A2 G4 | %28
w: let my heart la-|ment, and|let my heart la\-||ment, la-|ment, And|let my tongue, and|let my tongue|
 z2 c2 B4- | B4 A4 | G4 G4 | A4 z4 | z4 z2 F2 | B3 B A2 F2 | E2 F2 F2 E2 | F2 z2 z4 | z2 D2 C3 C | %37
w: have leave|* to|tell my|grief,|That|she may pi- ty,|though not grant re-|lief,|that she may|
 =B,2 C2 C2 B,2 | C3 D E2 E2- | EF G2 A2 =B2 | c4 z2 F2- | FF G2 A2 F2 | A4 G4 | F6 F2 | G4 F4 | %45
w: pi- ty, though not|grant re- lief. Pi\-|* ty would help, a-|las, pi\-|* ty would help, a-|las, what|Love hath|al- most|
 D6 D2 | G,4 C4 | D4 (C4- | C4 =B,4) | C4 z2 C2 | F6 F2 | E4 C4 | _E3 E D2 G2 | G4 G4 | %54
w: slain, what|Love hath|al- most||slain, hath|al- most|slain, And|salve the wound that|fes- ter'd|
 (C2 F4 E2) | F2 D2 C4- | C4 C4 | C4 E4 | F6 G2 | E4 (F4- | F4 E4) | F8 |] %62
w: this * *|* dis- dain,|* dis-|dain, that|fes- ter'd|this dis\-||dain.|
V:3
 z8 | z8 | z8 | z8 | z4 F4 |[M:2/2][K:treble-8] c6 G2 | B2 B2 A4- | A4 G2 G2 | G8 | G4 d4 | %10
w: ||||That|har- bour|dis- con- tent,|* dis- con-|tent,|that har-|
 c4 d4- | d2 c2 =B2 B2 | c6 _B2 | A2 G2 F4 | F4 B4- | B2 A2 (G2 F2 | G4) G4 | A4 z2 A2 | B2 A2 G4 | %19
w: bour dis\-|* con- tent, that|har- bour|dis- con- tent,|that har-|* bour dis\- *|* con-|tent, Cease|your as- saults,|
 z2 G2 G2 G2 | G4 z2 B2 | _e3 e e2 c2 | _d4 _A4 | _A4 G4 | _A4 A4 | G4 c4 | z2 F2 G4 | A4 B4 | %28
w: cease your as-|saults and|let my heart la-|ment, and|let my|heart la-|ment, And,|let my|tongue have|
 c4 d4 | (e4 f4-) | f4 e4 | f4 z2 c2 | d3 d c2 d2 | B2 G2 c2 (B2- | B2 A2) G2 c2 | c2 A2 c3 B | %36
w: leave to|tell *|* my|grief, That|she may pi- ty,|though not grant re\-|* * lief, re-|lief, that she may|
 A2 G2 G2 C2 | D2 G2 G4- | G2 A2 G2 c2 | dd e2 f2 d2 | c4 z4 | z4 c4 | c6 G2 | A4 d4 | c8 | %45
w: pi- ty, though not|grant re- lief,|* re- lief. Pi\-|* ty would help, a-|las,|what|Love hath|al- most|slain,|
 B4 B4- | B4 A4 | G6 G2 | G8 | z4 c4 | d4 d4 | G4 z2 G2 | c3 c =B2 d2 | e4 d2 (e2 | f_edc B2) B2 | %55
w: what Love|* hath|al- most|slain,|hath|al- most|slain, And|salve the wound that|fes- ter'd this|* * * * * dis-|
 c2 B4 (A2 | G2 F2 G4) | A4 G4 | c4 d4 | c8 | c8 | c8 |] %62
w: dain, this dis\-||dain, that|fes- ter'd|this|dis-|dain.|
V:4
 z8 | z8 | z8 | z4 C,4 | F,8- |[M:2/2] F,4 _E,4 | D,6 C,2 | A,,4 C,4- | C,4 =B,,4 | C,4 D,4 | %10
w: |||That|har\-|* bour|dis- con-|tent, dis\-|* con-|tent, that|
 E,4 F,4 | G,6 F,2 | E,4 (F,4- | F,2 _E,2 D,2 C,2) | B,,8 | C,8- | C,8 | F,,4 z2 F,2 | %18
w: har- bour|dis- con-|tent, dis\-|||con\-||tent, Cease|
 D,2 F,2 C,4 | z2 C,2 =B,,2 C,2 | G,,4 z2 G,2 | _E,3 E, E,2 F,2 | _D,6 C,2 | B,,4 B,,4 | %24
w: your as- saults,|cease your as-|saults and|let my heart la-|ment, and|let my|
 _A,,6 B,,2 | C,4 z2 C,2 | D,4 E,4 | F,4 G,4 | A,4 B,4 | C8 | C8 | F,4 z2 F,2 | B,3 B, A,2 F,2 | %33
w: heart la-|ment, And|let my|tongue have|leave to|tell|my|grief, That|she may pi- ty,|
 G,2 E,2 F,2 D,2 | C,4 z2 C,2 | F,3 F, E,2 C,2 | D,2 =B,,2 C,2 A,,2 | G,,4 G,,4 | C,8 | z8 | %40
w: though not grant re-|lief, that|she may pi- ty,|though not grant re-|lief, re-|lief.||
 z2 F,3 G, A,2 | B,2 G,2 F,4- | F,4 E,4 | F,4 D,4 | E,4 F,4 | B,,4 D,4 | C,6 C,2 | =B,,4 C,4 | %48
w: Pi- ty would|help, a- las,|* what|Love hath|al- most|slain, what|Love hath|al- most|
 G,,4 G,4 | E,4 F,4 | D,4 D,4 | C,4 z4 | z4 z2 G,2 | C3 C =B,2 C2 | A,2 _B,2 G,2 G,2 | %55
w: slain, what|Love hath|al- most|slain,|And|salve the wound that|fes- ter'd this dis-|
 F,2 G,2 E,2 F,2 | C,4 C,4 | F,4 C,4 | A,,4 B,,4 | C,8 | C,8 | F,,8 |] %62
w: dain, that fes- ter'd|this dis-|dain, that|fes- ter'd|this|dis-|dain.|

